icons/1_Primary/Gentoo Linux.svg

<svg xmlns="http://www.w3.org/2000/svg" viewBox="0 0 1024 1024">
   <circle cx="512" cy="512" r="512" style="fill:#54487a"/>
   <path d="M478 249a152.85 152.85 0 0 0-26.77 2.45c-92.67 17-157.9 97.22-163.44 150-2.79 26 11.21 45.34 19 53.9 20.76 23.21 62.32 40.88 89 55.55-38.54 32.88-56.32 48.9-73.76 67.21-26.11 27.45-44.46 57.57-44.46 79.13 0 7-1.11 29.21 7.91 46.65 3.44 6.68 13.11 28.56 42.21 45 18.66 10.55 45.23 14.45 71.23 10.78 80.44-11.55 188.22-79.79 265.1-143.33 49-40.56 84.79-79.79 95.12-99.1 8.33-15.56 9.33-43.58 4.44-61.13-13.77-49.89-125.55-152-217-193.11A166.71 166.71 0 0 0 478 249Zm-.11 1.45a157.2 157.2 0 0 1 71.34 16.1C623 302.79 747.79 404.87 757 456.1c11.32 63.46-211.91 235-347.68 261.78-52.65 10.35-97.68 13.23-118.1-42.44-17.78-48.21 16.67-83.54 67.33-129.88q31-28.16 63.23-55c1.31-1.46-121.78-43.9-125.66-92.56-4.12-50.1 75.21-142.55 176.75-147.32 1.68-.11 3.36-.23 5-.23Zm-2.45 11.09c-3.56 0-7.11.34-10.78.68-49.78 5.2-59.34 11.66-104.53 45.88-15.13 11.43-43 39.34-50.12 72.33-2.79 12.54.43 23.44 9.56 31.12 29 24.43 77.54 44.23 117.45 63.32 11.66 5.69 4 15.79-14.9 32.11-47.45 41.13-111.76 91.22-116.23 129.45-2.11 18 4.12 42.44 25.88 54.9 25.46 14.65 78.45 5.09 113.78-8.11C497.22 664 565 621.56 618.88 579.89c56-43.46 108.12-98.56 110.68-107.55 3.21-11 2.87-21.25-3.21-33-9.56-18.32-22.44-32-36.13-47.33-37-38.88-76.12-73.1-122.77-99.33-30.66-17.21-57.91-31.66-92-31.12Zm23 77.34c11.66 0 25.12 3.67 39.54 10.67 36 17.35 73 63.12-.31 89.46-20 7.11-83.23-17.58-81.35-51.34 1.91-33.56 18.23-48.9 42.13-48.78Zm6.12 29.12c-6.8 0-12.35 1.65-14.91 5.55-11.89 18.43-6.43 31.43 4.55 39.77 4.12-9.76 46 .91 45.79 10.13a5 5 0 0 0 1.22-.8c36.32-27.31-10.13-54.44-36.67-54.64Zm0 0" style="fill:#fff"/>
</svg>

<svg width="1024" height="1024" viewBox="0 0 1024 1024" fill="none" xmlns="http://www.w3.org/2000/svg">
<g clip-path="url(#clip0_2_2277)">
<path d="M512 1024C794.77 1024 1024 794.77 1024 512C1024 229.23 794.77 0 512 0C229.23 0 0 229.23 0 512C0 794.77 229.23 1024 512 1024Z" fill="#8C72BD"/>
<path d="M478 249C469.022 249.029 460.064 249.848 451.23 251.45C358.56 268.45 293.33 348.67 287.79 401.45C285 427.45 299 446.79 306.79 455.35C327.55 478.56 369.11 496.23 395.79 510.9C357.25 543.78 339.47 559.8 322.03 578.11C295.92 605.56 277.57 635.68 277.57 657.24C277.57 664.24 276.46 686.45 285.48 703.89C288.92 710.57 298.59 732.45 327.69 748.89C346.35 759.44 372.92 763.34 398.92 759.67C479.36 748.12 587.14 679.88 664.02 616.34C713.02 575.78 748.81 536.55 759.14 517.24C767.47 501.68 768.47 473.66 763.58 456.11C749.81 406.22 638.03 304.11 546.58 263C524.968 253.533 501.593 248.761 478 249ZM477.89 250.45C502.605 250.133 527.046 255.649 549.23 266.55C623 302.79 747.79 404.87 757 456.1C768.32 519.56 545.09 691.1 409.32 717.88C356.67 728.23 311.64 731.11 291.22 675.44C273.44 627.23 307.89 591.9 358.55 545.56C379.217 526.786 400.293 508.453 421.78 490.56C423.09 489.1 300 446.66 296.12 398C292 347.9 371.33 255.45 472.87 250.68C474.55 250.57 476.23 250.45 477.87 250.45H477.89ZM475.44 261.54C471.88 261.54 468.33 261.88 464.66 262.22C414.88 267.42 405.32 273.88 360.13 308.1C345 319.53 317.13 347.44 310.01 380.43C307.22 392.97 310.44 403.87 319.57 411.55C348.57 435.98 397.11 455.78 437.02 474.87C448.68 480.56 441.02 490.66 422.12 506.98C374.67 548.11 310.36 598.2 305.89 636.43C303.78 654.43 310.01 678.87 331.77 691.33C357.23 705.98 410.22 696.42 445.55 683.22C497.22 664 565 621.56 618.88 579.89C674.88 536.43 727 481.33 729.56 472.34C732.77 461.34 732.43 451.09 726.35 439.34C716.79 421.02 703.91 407.34 690.22 392.01C653.22 353.13 614.1 318.91 567.45 292.68C536.79 275.47 509.54 261.02 475.45 261.56L475.44 261.54ZM498.44 338.88C510.1 338.88 523.56 342.55 537.98 349.55C573.98 366.9 610.98 412.67 537.67 439.01C517.67 446.12 454.44 421.43 456.32 387.67C458.23 354.11 474.55 338.77 498.45 338.89L498.44 338.88ZM504.56 368C497.76 368 492.21 369.65 489.65 373.55C477.76 391.98 483.22 404.98 494.2 413.32C498.32 403.56 540.2 414.23 539.99 423.45C540.434 423.244 540.845 422.975 541.21 422.65C577.53 395.34 531.08 368.21 504.54 368.01L504.56 368Z" fill="white"/>
</g>
<defs>
<clipPath id="clip0_2_2277">
<rect width="1024" height="1024" fill="white"/>
</clipPath>
</defs>
</svg>
